!!!COM: Palestrina, Giovanni Perluigi da
!!!OPR: Missa In duplicibus minoribus (I)
!!!OMD: Credo
!!!OTL: Et ex Patre
**kern	**kern	**kern	**kern	**kern
*Ibass	*Itenor	*Itenor	*Icalto	*Icant
!Bassus	!Tenor 2	!Tenor 1	!Altus	!Cantus
*clefF4	*clefGv2	*clefGv2	*clefG2	*clefG2
*k[]	*k[]	*k[]	*k[]	*k[]
*E:phr	*E:phr	*E:phr	*E:phr	*E:phr
*M4/2	*M4/2	*M4/2	*M4/2	*M4/2
=24	=24	=24	=24	=24
1E	0r	0r	1r	1e
1G	.	.	1B	1d
=25	=25	=25	=25	=25
2F	0r	0r	1A	1f
2D	.	.	.	.
1A	.	.	1c	1e
=26	=26	=26	=26	=26
2G	0r	1r	1B	1g
4F	.	.	.	.
4E	.	.	.	.
1F	.	1A	1d	1a
=27	=27	=27	=27	=27
1C	1r	1c	1e	2r
.	.	.	.	2e
1r	1E	2B	2r	1g
.	.	2G	2B	.
=28	=28	=28	=28	=28
0r	1D	2B	1d	2f
.	.	2.A	.	2d
.	1F	.	2c	1a
.	.	4B	.	.
.	.	[2c	2A	.
=29	=29	=29	=29	=29
0r	1E	2c]	1e	0g
.	.	4B	.	.
.	.	4A	.	.
.	1G	1B	1d	.
=30	=30	=30	=30	=30
0r	2A	1c	2r	1e
.	2A	.	2c	.
.	2B	2r	2d	2g
.	[2c	2A	[2e	[2a
=31	=31	=31	=31	=31
0r	2c]	2c	2e]	2a]
.	2B	1d	2d	2g
.	1A	.	2a	2f
.	.	2c	2A	[2e
=32	=32	=32	=32	=32
1r	2G	2B	4B	2e]
.	.	.	4c	.
.	2F	1A	4d	2d
.	.	.	4A	.
2r	1E	.	2c	1e
2E	.	4G	2B	.
.	.	4A	.	.
=33	=33	=33	=33	=33
2G	2r	4B	1e	0r
.	.	8A	.	.
.	.	8B	.	.
1A	2A	1c	.	.
.	2c	.	1r	.
2G	[2d	2B	.	.
=34	=34	=34	=34	=34
2F	2d]	2A	0r	1r
2.E	2c	2.G	.	.
.	2B	.	.	2r
4D	.	4F	.	.
2C	[2A	2E	.	2a
=35	=35	=35	=35	=35
2BB	2A]	1D	0r	2b
2BB	2G#	.	.	1dd
4AA	1A	2E	.	.
4BB	.	.	.	.
4C	.	[2A	.	2cc
4D	.	.	.	.
=36	=36	=36	=36	=36
1E	2r	2A]	1B	1b
.	2E	2G#	.	.
1r	2F	2A	2d	2a
.	2G	2B	[2e	4g
.	.	.	.	8f
.	.	.	.	8e
=37	=37	=37	=37	=37
0r	2A	2c	2e]	1f
.	2D	1B	2d	.
.	[1E	.	1c	1e
.	.	[2A	.	.
=38	=38	=38	=38	=38
1E	1E]	4A]	1B	[0e
.	.	4G#	.	.
.	.	4G#	.	.
.	.	8A	.	.
.	.	8B	.	.
1AA	1E	4c	1A	.
.	.	4B	.	.
.	.	[2A	.	.
=39	=39	=39	=39	=39
[0E	[0E	2A]	[0B	0e]
.	.	2G#	.	.
.	.	1G#	.	.
=40	=40	=40	=40	=40
1E_	1E_	[0G#	1B_	[0e
1E_	1E_	.	1B_	.
=41	=41	=41	=41	=41
0E]	0E]	0G#]	0B]	0e]
*-	*-	*-	*-	*-
!!!CDT: 1525/^1526/-1594/2/2
!!!OCY: Italia
!!!AGN: Mass (Paraphrase)
!!!AST: renaissance, vocal
!!!ASW: Gregorian Mass
!!!PWK: Masses, Book Mantuan I
!!!RNB: Cadence finals: A
!!!YOR: Le Opere Complete, v. 18, p. 42
!!!YOO: Rome, Italy: Fratelli Scalera
!!!END: 1992//
!!!EED: John Miller
!!!YEC: Copyright 2000, John Miller
!!!YEN: United States of America
!!!YEM: Rights to all derivative electronic formats reserved.
!!!YEM: Refer to licensing agreement for further details.
!!!YEM: This file must be accompanied by the licensing agreement.
!!!YEM: A copy of the licensing agreement may be found at http://www.music-cog.ohio-state.edu/HumdrumDatabases/Palestrina/license.txt
!!!EMD: converted to Humdrum by Bret Aarden
